app/assets/images/landing_page/customer_logo4.svg

<?xml version="1.0" encoding="UTF-8" standalone="no"?>
<svg
   xmlns:dc="http://purl.org/dc/elements/1.1/"
   xmlns:cc="http://creativecommons.org/ns#"
   xmlns:rdf="http://www.w3.org/1999/02/22-rdf-syntax-ns#"
   xmlns:svg="http://www.w3.org/2000/svg"
   xmlns="http://www.w3.org/2000/svg"
   xmlns:sodipodi="http://sodipodi.sourceforge.net/DTD/sodipodi-0.dtd"
   xmlns:inkscape="http://www.inkscape.org/namespaces/inkscape"
   width="206.89723"
   height="35.689552"
   viewBox="0 0 206.89723 35.689552"
   version="1.1"
   id="svg13"
   sodipodi:docname="customer_logo4.svg"
   style="fill:none"
   inkscape:version="0.92.4 (5da689c313, 2019-01-14)">
  <metadata
     id="metadata17">
    <rdf:RDF>
      <cc:Work
         rdf:about="">
        <dc:format>image/svg+xml</dc:format>
        <dc:type
           rdf:resource="http://purl.org/dc/dcmitype/StillImage" />
        <dc:title></dc:title>
      </cc:Work>
    </rdf:RDF>
  </metadata>
  <sodipodi:namedview
     pagecolor="#ffffff"
     bordercolor="#666666"
     borderopacity="1"
     objecttolerance="10"
     gridtolerance="10"
     guidetolerance="10"
     inkscape:pageopacity="0"
     inkscape:pageshadow="2"
     inkscape:window-width="2148"
     inkscape:window-height="1376"
     id="namedview15"
     showgrid="false"
     fit-margin-bottom="-2.7755576e-17"
     fit-margin-top="0"
     fit-margin-left="0"
     fit-margin-right="0"
     inkscape:zoom="7.5384615"
     inkscape:cx="114.76524"
     inkscape:cy="37.269729"
     inkscape:window-x="0"
     inkscape:window-y="0"
     inkscape:window-maximized="0"
     inkscape:current-layer="svg13" />
  <defs
     id="defs11">
    <clipPath
       id="clip0">
      <rect
         width="207.241"
         height="30"
         id="rect8"
         x="0"
         y="0"
         style="fill:#ffffff" />
    </clipPath>
  </defs>
  <g
     id="g3731"
     transform="translate(-0.137939,-5.0758531)">
    <g
       transform="translate(0,4.7653061)"
       id="g6"
       clip-path="url(#clip0)">
      <path
         sodipodi:nodetypes="sccssssccsscscccscccscccccccc"
         style="fill:#575757"
         inkscape:connector-curvature="0"
         id="path2"
         d="M 58.2759,29.8966 H 72.5862 V 25.5173 H 60.8621 c -1.138,0 -2.2759,-0.6207 -2.2759,-2.7931 v -0.3103 c 0,-1.8966 0.9655,-2.6552 2.2069,-2.6552 H 72.5862 V 15.3794 H 58 c -5.931,0 -8.3448,2.5862 -8.3448,6.5862 v 1.3448 c -0.0345,4.7242 2.5517,6.5862 8.6207,6.5862 z m -19.3449,0 h 8.8966 V 13.1035 h -5.1724 c -2.138,0 -3.6552,0.8966 -5.1035,2.1724 -1.6207,1.4138 -7.4827,6.5173 -7.4827,6.5173 v -8.6897 h -5.2414 c -2.9655,0 -4.4483,1 -6.1035,2.3104 C 17.5862,16.3104 0.137939,29.8966 0.137939,29.8966 H 10.6897 l 10.4482,-8.5862 v 8.5862 h 8.4483 l 9.3448,-8.5172 z" />
      <path
         style="fill:#575757"
         inkscape:connector-curvature="0"
         id="path4"
         d="m 200.241,0.310547 c -4.551,0 -11,1.379313 -17.965,3.896553 -5.793,2.13794 -11.552,4.82759 -17.759,8.7586 3.621,-1.4827 10.828,-3.17239 16.724,-3.17239 8,0 13.69,3.06899 5.276,13.79309 C 211.31,7.37951 210.621,0.310547 200.241,0.310547 Z" />
    </g>
    <text
       transform="scale(1.0946561,0.91352891)"
       id="text3724"
       y="37.63802"
       x="66.756378"
       style="font-style:normal;font-weight:normal;font-size:29.99474907px;line-height:1.25;font-family:sans-serif;letter-spacing:0px;word-spacing:0px;fill:#575757;fill-opacity:1;stroke:none;stroke-width:0.74986869"
       xml:space="preserve"><tspan
         style="font-style:normal;font-variant:normal;font-weight:normal;font-stretch:normal;font-family:'Bauhaus 93';-inkscape-font-specification:'Bauhaus 93, ';fill:#575757;fill-opacity:1;stroke-width:0.74986869"
         y="37.63802"
         x="66.756378"
         id="tspan3722"
         sodipodi:role="line">Murrray</tspan></text>
  </g>
</svg>

<svg width="208" height="30" viewBox="0 0 208 30" fill="none" xmlns="http://www.w3.org/2000/svg">
<g clip-path="url(#clip0)">
<path d="M183.759 29.8966C183.759 29.8966 183.759 24.138 183.759 21.8277C183.759 16.8276 181.276 15.4139 174.138 15.4139C174.069 15.4139 160.069 15.4139 160.069 15.4139V29.8966H168.966V20.1035C168.966 20.1035 170.724 20.1035 171.345 20.1035C174 20.1035 174.897 21.6552 174.897 23.3104C174.897 24.1725 174.897 29.8966 174.897 29.8966H183.759ZM158.379 20.207C158.379 20.0346 158.379 19.8277 158.379 19.6208C158.379 17.2414 157 15.4139 150.828 15.4139C149.172 15.4139 143.655 15.4139 141.724 15.4139C135.966 15.4139 133.586 17.3794 133.586 21.6552C133.586 22.4828 133.586 23.4139 133.586 24.207C133.586 27.8277 135.966 29.8966 141.069 29.8966H157.31V25.6552H144.207C142.931 25.6552 142.448 25.2759 142.448 24.2759V24.138C143.483 24.138 150.172 24.138 152.621 24.138C156.207 24.138 158.379 22.9311 158.379 20.207ZM149.966 20.5518C149.966 21.207 149.69 21.5518 148.655 21.5518H142.414V21.0346C142.414 20.207 142.759 19.6552 143.759 19.6552C144.759 19.6552 148.621 19.6552 148.621 19.6552C149.414 19.6208 149.966 19.9311 149.966 20.5518ZM127.069 19.7932H132.621V15.4139C132.621 15.4139 125.69 15.4139 121.207 15.4139C119.379 15.4139 118.241 16.3794 118.241 17.9656C118.241 18.7242 118.241 29.8966 118.241 29.8966H127.069V19.7932ZM116.31 24.2759C116.31 23.4483 116.31 21.8966 116.31 21.138C116.31 17.5173 113.931 15.4483 108.828 15.4483H92.9655V19.6552H105.724C107 19.6552 107.483 20.069 107.483 21.0346V21.1725C106.448 21.1725 99.7586 21.1725 97.3104 21.1725C93 21.1725 91.5862 23.0001 91.5862 25.3449C91.5862 25.5173 91.5862 25.5863 91.5862 25.7932C91.5862 26.8621 91.8966 27.7587 92.5172 28.3449C93.7586 29.5518 96.1379 29.8966 99.3793 29.8966C101.034 29.8966 106.276 29.8966 108.207 29.8966C113.931 29.8966 116.31 28.5518 116.31 24.2759ZM107.448 24.2759C107.448 25.1035 107.103 25.6552 106.103 25.6552C105.103 25.6552 101.31 25.6552 101.31 25.6552C100.483 25.6552 100 25.4139 100 24.7587C100 24.1035 100.31 23.6897 101.31 23.6897H107.448V24.2759ZM90.2414 29.8966V25.5173H83.4138V13.1035H74.5517V29.8966H90.2414ZM58.2759 29.8966C60.4828 29.8966 72.5862 29.8966 72.5862 29.8966V25.5173C72.5862 25.5173 61.8966 25.5173 60.8621 25.5173C59.7241 25.5173 58.5862 24.8966 58.5862 22.7242V22.4139C58.5862 20.5173 59.5517 19.7587 60.7931 19.7587C61.3448 19.7587 69.5862 19.7587 72.5862 19.7587V15.3794C68.3793 15.3794 58.0345 15.3794 58 15.3794C52.069 15.3794 49.6552 17.9656 49.6552 21.9656V23.3104C49.6207 28.0346 52.2069 29.8966 58.2759 29.8966ZM38.931 29.8966H47.8276V13.1035C47.8276 13.1035 45.2759 13.1035 42.6552 13.1035C40.5172 13.1035 39 14.0001 37.5517 15.2759C35.931 16.6897 30.069 21.7932 30.069 21.7932V13.1035C30.069 13.1035 27.6897 13.1035 24.8276 13.1035C21.8621 13.1035 20.3793 14.1035 18.7241 15.4139C17.5862 16.3104 0.137939 29.8966 0.137939 29.8966H10.6897L21.1379 21.3104V29.8966H29.5862L38.931 21.3794V29.8966Z" fill="#575757"/>
<path d="M200.241 0.310547C195.69 0.310547 189.241 1.68986 182.276 4.2071C176.483 6.34504 170.724 9.03469 164.517 12.9657C168.138 11.483 175.345 9.79331 181.241 9.79331C189.241 9.79331 194.931 12.8623 186.517 23.5864C211.31 7.37951 210.621 0.310547 200.241 0.310547Z" fill="#575757"/>
</g>
<defs>
<clipPath id="clip0">
<rect width="207.241" height="30" fill="white"/>
</clipPath>
</defs>
</svg>
